assets/awsstoragegatewayfilegateway/original.svg

<svg height="48" viewBox="0 0 48 48" width="48" xmlns="http://www.w3.org/2000/svg"><path d="m19.871 4c-5.743 0-9.286 1.666-12.87 3.736v38.264h-2.001v-38.839c0-.355.187-.683.493-.863 3.868-2.265 7.877-4.298 14.378-4.298 6.042 0 10.468 2.281 14.024 4.115l.305.157a1 1 0 0 1 .542.889v17.339h-2v-16.729c-3.48-1.793-7.438-3.771-12.87-3.771m21.928 40.1h-25.506v-17.579h6.325l.856 1.773a1 1 0 0 0 .901.564h17.424zm1-17.242h-17.797l-.857-1.772a1 1 0 0 0 -.9-.565h-7.952a1 1 0 0 0 -1 1v19.579a1 1 0 0 0 1 1h27.506a1 1 0 0 0 1-1v-17.242a1 1 0 0 0 -1-1" fill="#7aa116" fill-rule="evenodd"/></svg>

<svg xmlns="http://www.w3.org/2000/svg" width="48" height="48" viewBox="0 0 48 48"><path fill="#7aa116" fill-rule="evenodd" d="M19.871 4c-5.743 0-9.286 1.666-12.87 3.736V46H5V7.161a1 1 0 0 1 .493-.863C9.361 4.033 13.37 2 19.871 2c6.042 0 10.468 2.281 14.024 4.115l.305.157a1 1 0 0 1 .542.889V24.5h-2V7.771C29.262 5.978 25.304 4 19.872 4M41.8 44.1H16.294V26.521h6.325l.856 1.773a1 1 0 0 0 .901.564H41.8zm1-17.242H25.003l-.857-1.772a1 1 0 0 0-.9-.565h-7.952a1 1 0 0 0-1 1V45.1a1 1 0 0 0 1 1H42.8a1 1 0 0 0 1-1V27.858a1 1 0 0 0-1-1"/></svg>
